window-open-variant.svg

<svg fill="currentColor" viewBox="0 0 24 24"><path d="M21 20V2H3v18H1v3h22v-3M19 4v7h-2V4M5 4h2v7H5m0 9v-7h2v7m2 0V4h6v16m2 0v-7h2v7Z"/></svg>

<svg  viewBox="0 0 24 24" fill="currentColor"><path  d="M21 20V2H3V20H1V23H23V20M19 4V11H17V4M5 4H7V11H5M5 20V13H7V20M9 20V4H15V20M17 20V13H19V20Z"/></svg>
